!!!OTL: 338. Trinklied
!!!COM: E. M. Arndt
!!!ODT: 1818
!!!ARE: Europa, Mitteleuropa, Deutschland
!!!SCT: B0338
!!!TXL: @@DE
!!!YEM: Copyright 1995, estate of Helmut Schaffrath.
**kern	**text
*ICvox	*
*Ivox	*
*M4/4	*
*met(c)	*
*clefG2	*
*k[f#c#]	*
*D:	*
=1	=1
!LO:TX:a:t=Geſchwind.	!
{4a	Bringt
4a	mir
4dd	Blut
4a	der
=2	=2
4f#	ed-
4f#	-len
4a	Re-
4f#	-ben,
=3	=3
2d	bringt
2e	mir
=4	=4
2f#	Wein!
2r}	.
=5	=5
{4dd	Wie
4cc#	ein
4b	Frühlings-
4a	.
=6	=6
4b	-vo-
4a	-gel
4g	le-
4f#	-ben,
=7	=7
4e	in
4f#	den
4g	Lüf-
4e	-ten
=8	=8
4a	will
4g	ich
4f#	ſchweben
4e}	.
=9	=9
{2dd	bei
2ee	dem
=10	=10
(4ff#	Wein,
2dd)	.
4r	.
=11	=11
2a	bei
2cc#	den
=12	=12
2dd	Wein!
2r}	.
=13	=13
{4dd	Wie
4cc#	ein
4b	Frühlings-
4a	.
=14	=14
4b	-vo-
4a	-gel
4g	le-
4f#	-ben,
=15	=15
4e	in
4f#	den
4g	Lüf-
4e	-ten
=16	=16
4a	will
4g	ich
4f#	ſchweben
4e}	.
=17	=17
{2dd	bei
2ee	dem
=18	=18
(4ff#	Wein,
2dd)	.
4r	.
=19	=19
2a	bei
2cc#	den
=20	=20
2dd	Wein!
2r}	.
==	==
!!!AGN: Trink - Lied, patriotisch, national
!!!GTL: Wein- und Trinklieder
!!!ONB: ESAC (Essen Associative Code) Database: BOEHME
!!!AMT: simple quadruple
!!!AIN: vox
!!!EED: Helmut Schaffrath
!!!EEV: 1.0
!!Mel. v. Arndt 1818.
!!@@COMMENT:"!!Gedicht von E. M. Arndt 1817. Melodie von ihm ſelbſt 1818. Hier der Text nach der
!!älteren Lesart (aus dem Munde Bonner Studenten 1820) bei Hoffmann, "Volksgeſangbuch 1848"
!!und "Liederbuch des deutſchen Volkes", Leipʒig 1843. Hoffmann, der 1820 in Bonn das Lied mit-
!!ſang, nennt dieſen Text beſſer, als den in Arndts Gedichten 1843 S. 320. Das Original, mit
!!mythologiſchen Namen (Fortuna und Bachus) durchſetʒt, findet man in Commersbüchern."
!!@@END:
!!!Text: E. M. Arndt
!!!URL-scan: https://archive.org/details/BoehmeVtLieder1895/page/n283/mode/2up
!!!ENC: Anna Maria Matuszewska
!!!EEV: 2024/05/07
*-	*-
